src/images/footer_icon_4.svg

<svg width="40" height="40" viewBox="0 0 40 40" fill="none" xmlns="http://www.w3.org/2000/svg">
<rect width="40" height="40" rx="20" fill="#15131D"/>
<g clip-path="url(#clip0_447_25719)">
<path d="M28.5714 14.6968C27.9286 14.9647 27.2857 15.179 26.5357 15.2326C27.2857 14.804 27.8214 14.1076 28.0893 13.304C27.3929 13.7326 26.6429 14.0004 25.8393 14.1611C25.1964 13.4647 24.2857 13.0361 23.3214 13.0361C21.3929 13.0361 19.7857 14.5897 19.7857 16.5718C19.7857 16.8397 19.8393 17.1076 19.8929 17.3754C16.9464 17.2147 14.375 15.8218 12.6071 13.679C12.2857 14.2147 12.125 14.804 12.125 15.4468C12.125 16.679 12.7679 17.7504 13.6786 18.3933C13.0893 18.3933 12.5536 18.2326 12.0714 17.9647V18.0183C12.0714 19.7326 13.3036 21.1254 14.9107 21.4468C14.5893 21.5004 14.3214 21.554 14 21.554C13.7857 21.554 13.5714 21.554 13.3571 21.5004C13.7857 22.8933 15.125 23.9111 16.625 23.9647C15.4464 24.929 13.8929 25.4647 12.2321 25.4647C11.9643 25.4647 11.6429 25.4647 11.375 25.4111C12.9821 26.3754 14.8571 26.9647 16.8393 26.9647C23.3214 26.9647 26.8571 21.6076 26.8571 16.9468C26.8571 16.7861 26.8571 16.6254 26.8571 16.5183C27.5 15.9826 28.0893 15.3933 28.5714 14.6968Z" fill="#757185"/>
</g>
<defs>
<clipPath id="clip0_447_25719">
<rect width="17.1429" height="17.1429" fill="white" transform="translate(11.4277 11.4287)"/>
</clipPath>
</defs>
</svg>

<svg xmlns="http://www.w3.org/2000/svg" width="40" height="40" fill="none"><rect width="40" height="40" fill="#15131D" rx="20"/><g clip-path="url(#a)"><path fill="#757185" d="M28.571 14.697c-.642.268-1.285.482-2.035.536a3.462 3.462 0 0 0 1.553-1.929c-.696.429-1.446.696-2.25.857a3.45 3.45 0 0 0-2.518-1.125 3.532 3.532 0 0 0-3.535 3.536c0 .268.053.536.107.803-2.947-.16-5.518-1.553-7.286-3.696a3.372 3.372 0 0 0-.482 1.768c0 1.232.643 2.303 1.554 2.946-.59 0-1.125-.16-1.608-.428v.053c0 1.715 1.233 3.107 2.84 3.429-.322.053-.59.107-.911.107-.214 0-.429 0-.643-.054.429 1.393 1.768 2.411 3.268 2.465-1.179.964-2.732 1.5-4.393 1.5-.268 0-.59 0-.857-.054 1.607.964 3.482 1.554 5.464 1.554 6.482 0 10.018-5.357 10.018-10.018v-.429c.643-.535 1.232-1.125 1.714-1.821Z"/></g><defs><clipPath id="a"><path fill="#fff" d="M11.428 11.429H28.57v17.143H11.428z"/></clipPath></defs></svg>
